svg/graphql.svg

<?xml version="1.0" encoding="UTF-8"?>
<svg xmlns="http://www.w3.org/2000/svg" xmlns:xlink="http://www.w3.org/1999/xlink" width="28.444" height="32" viewBox="0 0 28.444 32">
<path fill-rule="nonzero" fill="rgb(88.235294%, 0%, 59.607843%)" fill-opacity="1" d="M 2.589844 24.359375 L 1.417969 23.679688 L 14.488281 1.042969 L 15.660156 1.722656 Z M 1.148438 21.871094 L 27.289062 21.871094 L 27.289062 23.226562 L 1.148438 23.226562 Z M 14.738281 30.183594 L 1.664062 22.632812 L 2.34375 21.460938 L 15.417969 29.011719 Z M 26.097656 10.507812 L 13.023438 2.957031 L 13.699219 1.785156 L 26.777344 9.335938 Z M 2.347656 10.5 L 1.667969 9.328125 L 14.753906 1.777344 L 15.433594 2.949219 Z M 25.859375 24.359375 L 12.785156 1.71875 L 13.957031 1.042969 L 27.03125 23.679688 Z M 2.183594 8.429688 L 3.539062 8.429688 L 3.539062 23.527344 L 2.183594 23.527344 Z M 24.90625 8.429688 L 26.261719 8.429688 L 26.261719 23.527344 L 24.90625 23.527344 Z M 14.511719 29.609375 L 13.917969 28.585938 L 25.292969 22.019531 L 25.882812 23.042969 Z M 28.054688 23.96875 C 27.269531 25.332031 25.527344 25.796875 24.164062 25.015625 C 22.804688 24.226562 22.335938 22.488281 23.117188 21.121094 C 23.699219 20.128906 24.816406 19.578125 25.957031 19.726562 C 27.097656 19.878906 28.039062 20.695312 28.34375 21.804688 C 28.539062 22.535156 28.4375 23.316406 28.054688 23.96875 M 5.316406 10.839844 C 4.496094 12.125 2.808594 12.535156 1.488281 11.773438 C 0.167969 11.011719 -0.320312 9.34375 0.378906 7.988281 C 1.167969 6.628906 2.910156 6.164062 4.273438 6.945312 C 5.632812 7.734375 6.097656 9.472656 5.316406 10.835938 M 0.390625 23.96875 C -0.390625 22.609375 0.0742188 20.871094 1.433594 20.082031 C 2.796875 19.304688 4.53125 19.769531 5.328125 21.121094 C 6.113281 22.488281 5.644531 24.230469 4.28125 25.015625 C 2.910156 25.796875 1.171875 25.335938 0.390625 23.972656 M 23.125 10.839844 C 22.34375 9.476562 22.8125 7.734375 24.171875 6.945312 C 25.535156 6.164062 27.277344 6.632812 28.066406 7.992188 C 28.847656 9.355469 28.378906 11.09375 27.019531 11.882812 C 25.65625 12.667969 23.914062 12.199219 23.125 10.839844 M 14.222656 31.960938 C 12.652344 31.957031 11.378906 30.683594 11.375 29.113281 C 11.375 28.359375 11.675781 27.632812 12.207031 27.097656 C 12.742188 26.566406 13.46875 26.265625 14.222656 26.265625 C 15.796875 26.265625 17.070312 27.539062 17.070312 29.113281 C 17.066406 30.683594 15.792969 31.957031 14.222656 31.960938 M 14.222656 5.695312 C 13.46875 5.699219 12.742188 5.398438 12.207031 4.863281 C 11.671875 4.328125 11.371094 3.605469 11.375 2.847656 C 11.375 1.832031 11.917969 0.890625 12.796875 0.382812 C 13.675781 -0.128906 14.765625 -0.128906 15.644531 0.382812 C 16.527344 0.890625 17.070312 1.832031 17.070312 2.847656 C 17.070312 3.605469 16.769531 4.328125 16.238281 4.863281 C 15.703125 5.394531 14.976562 5.695312 14.222656 5.695312 "/>
</svg>

<svg role="img" viewBox="0 0 28.444 32" height="32" width="28.444" xmlns="http://www.w3.org/2000/svg"><path d="m2.59 24.36-1.172-.68 13.07-22.637 1.172.68Zm-1.442-2.49H27.29v1.356H1.15Zm13.59 8.313-13.074-7.55.68-1.172 13.074 7.55Zm11.36-19.676-13.075-7.55.676-1.172 13.078 7.55ZM2.348 10.5l-.68-1.172 13.086-7.55.68 1.171Zm23.511 13.86L12.785 1.718l1.172-.676L27.031 23.68ZM2.184 8.43h1.355v15.097H2.184Zm22.722 0h1.356v15.097h-1.356ZM14.512 29.61l-.594-1.024 11.375-6.566.59 1.023Zm13.543-5.641a2.853 2.853 0 0 1-3.89 1.047 2.86 2.86 0 0 1-1.048-3.895 2.865 2.865 0 0 1 2.84-1.394 2.865 2.865 0 0 1 2.387 2.078c.195.73.093 1.511-.29 2.164M5.317 10.839a2.851 2.851 0 0 1-3.828.934 2.858 2.858 0 0 1-1.11-3.785 2.86 2.86 0 0 1 3.895-1.043 2.856 2.856 0 0 1 1.043 3.89M.391 23.97a2.852 2.852 0 0 1 1.043-3.887 2.87 2.87 0 0 1 3.894 1.04 2.853 2.853 0 0 1-1.047 3.894c-1.37.78-3.11.32-3.89-1.043M23.125 10.84a2.86 2.86 0 0 1 1.047-3.895 2.86 2.86 0 0 1 3.894 1.047 2.857 2.857 0 0 1-1.046 3.89 2.857 2.857 0 0 1-3.895-1.042m-8.902 21.12a2.856 2.856 0 0 1-2.848-2.847c0-.754.3-1.48.832-2.015a2.867 2.867 0 0 1 2.016-.832 2.846 2.846 0 0 1 2.847 2.847 2.856 2.856 0 0 1-2.847 2.848m0-26.266a2.834 2.834 0 0 1-2.016-.832 2.827 2.827 0 0 1-.832-2.015A2.85 2.85 0 0 1 12.797.383a2.833 2.833 0 0 1 2.848 0 2.845 2.845 0 0 1 1.425 2.465c0 .757-.3 1.48-.832 2.015a2.867 2.867 0 0 1-2.015.832" fill="rgb(88.235294%, 0%, 59.607843%)"/></svg>
